X: 18
T: Zouzhe zhanzhe pansuan ni
L: 1/16
M: 2/4
K: C
G2A4G E [I:setbarnb 1]| 
G2 A2 G2 E D | 
A,4G2 E C | 
A,8 | 
G2A4G E | 
G2 A2 G2 E D | 
A,4G2 E C | 
D8 |]

@@@ Tune index: 8892
